X: 0
T:The Somerset Wassail Verse 5
M:2/2
L:1/8
S:The New Oxford Book of Carols #158
K:C
||FF|(F2d2)(c2_B2)|A4G2F2|(F2G2)A2_B2|c6:||
c2|(d2_B2) _e2d2|c4 (_B2A2)|G2F2G2A2|_B4||
A2G2|F4G4|C6 CC|(F4G2)A2|_B4A2_B2|(c2f2)d2_B2|c4(_B2A2|(G2F2)A2G2|F6|
To return to the top click here
-----------------------------------------------------------------------------
